X:95
T:Corran House 
C:Joe Buchanan's Scottish Tome - Page 123.1
I:123 1
R:Jig
Z:Carl Allison
L:1/8
M:6/8
K:A
"A"A2 A A>Bc | e>fa f2 "E7"e | "A"c2 e c>BA | "E7"B>ce f2 e |
"A"A2 A A>Bc | e>fa f2 "E7"e | "A"a2 a f>ec | "E7"B2 A A2 :|
|: e | "D"f>gf "A"fec | efa f2e | c2 A ABc | e>fe e2 c |
"D"f>gf "A"fec | e>fa f2 e | a2 a "E7"f>ec | "A"B2 A A2 :|

